/* XPM */
static char *result[] = {
/* columns rows colors chars-per-pixel */
"64 64 3 1 ",
"  c #296640",
". c #509B66",
"X c #69B57F",
/* pixels */
"................................................................",
"................................................................",
"................................................................",
"................................................................",
"....XXXXXXXX........................................XXXXXXXX....",
"....XXXXXXXX........................................XXXXXXXX....",
"....XXXXXXXX........................................XXXXXXXX....",
"....XXXXXXXX........................................XXXXXXXX....",
"        XXXXXXXX................................XXXXXXXXXXXX....",
"        XXXXXXXX................................XXXXXXXXXXXX....",
"        XXXXXXXX................................XXXXXXXXXXXX....",
"        XXXXXXXX................................XXXXXXXXXXXX....",
"....        XXXX....................XXXXXXXX....XXXXXXXX        ",
"....        XXXX....................XXXXXXXX....XXXXXXXX        ",
"....        XXXX....................XXXXXXXX....XXXXXXXX        ",
"....        XXXX....................XXXXXXXX....XXXXXXXX        ",
"....................XXXXXXXX....        XXXXXXXXXXXX        ....",
"....................XXXXXXXX....        XXXXXXXXXXXX        ....",
"....................XXXXXXXX....        XXXXXXXXXXXX        ....",
"....................XXXXXXXX....        XXXXXXXXXXXX        ....",
"................XXXXXXXXXXXX............    XXXX................",
"................XXXXXXXXXXXX............    XXXX................",
"................XXXXXXXXXXXX............    XXXX................",
"................XXXXXXXXXXXX............    XXXX................",
"................XXXXXXXX        ................................",
"................XXXXXXXX        ................................",
"................XXXXXXXX        ................................",
"................XXXXXXXX        ................................",
"................XXXX        ....................................",
"................XXXX        ....................................",
"................XXXX        ....................................",
"................XXXX        ....................................",
"................................................................",
"................................................................",
"................................................................",
"................................................................",
"....XXXXXXXX........................................XXXXXXXX....",
"....XXXXXXXX........................................XXXXXXXX....",
"....XXXXXXXX........................................XXXXXXXX....",
"....XXXXXXXX........................................XXXXXXXX....",
"        XXXXXXXX................................XXXXXXXXXXXX....",
"        XXXXXXXX................................XXXXXXXXXXXX....",
"        XXXXXXXX................................XXXXXXXXXXXX....",
"        XXXXXXXX................................XXXXXXXXXXXX....",
"....        XXXX....................XXXXXXXX....XXXXXXXX        ",
"....        XXXX....................XXXXXXXX....XXXXXXXX        ",
"....        XXXX....................XXXXXXXX....XXXXXXXX        ",
"....        XXXX....................XXXXXXXX....XXXXXXXX        ",
"....................XXXXXXXX....        XXXXXXXXXXXX        ....",
"....................XXXXXXXX....        XXXXXXXXXXXX        ....",
"....................XXXXXXXX....        XXXXXXXXXXXX        ....",
"....................XXXXXXXX....        XXXXXXXXXXXX        ....",
"................XXXXXXXXXXXX............    XXXX................",
"................XXXXXXXXXXXX............    XXXX................",
"................XXXXXXXXXXXX............    XXXX................",
"................XXXXXXXXXXXX............    XXXX................",
"................XXXXXXXX        ................................",
"................XXXXXXXX        ................................",
"................XXXXXXXX        ................................",
"................XXXXXXXX        ................................",
"................XXXX        ....................................",
"................XXXX        ....................................",
"................XXXX        ....................................",
"................XXXX        ...................................."
};
