/* XPM */
static char *result[] = {
/* columns rows colors chars-per-pixel */
"64 64 10 1 ",
"  c #0C0E19",
". c #21110D",
"X c #342319",
"o c #242A3D",
"O c #503625",
"+ c #755338",
"@ c #414B66",
"# c #677598",
"$ c #B6BEC8",
"% c None",
/* pixels */
"%%%%%%%%%%%%%%%%%%%%%%%%%%%%%%%%%%%%%%%%%%%%%%%%%%%%%%%%%%%%%%%%",
"%%%%%%%%%%%%%%%%%%%%%%%%%%%%%%%%%%%%%%%%%%%%%%%%%%%%%%%%%%%%%%%%",
"%%%%%%%%%%%%%%%%%%%%%%%%%%%%%%%%%%%%%%%%%%%%%%%%%%%%%%%%%%%%%%%%",
"%%%%%%%%%%%%%%%%%%%%%%%%%%%%%%%%%%%%%%%%%%%%%%%%%%%%%%%%%%%%%%%%",
"%%%%%%%%................................................%%%%%%%%",
"%%%%%%%%................................................%%%%%%%%",
"%%%%%%%%................................................%%%%%%%%",
"%%%%%%%%................................................%%%%%%%%",
"%%%%....OOOO########OOOOOOOOOOOOOOOOOOOOOOOO########OOOO....%%%%",
"%%%%....OOOO########OOOOOOOOOOOOOOOOOOOOOOOO########OOOO....%%%%",
"%%%%....OOOO########OOOOOOOOOOOOOOOOOOOOOOOO########OOOO....%%%%",
"%%%%....OOOO########OOOOOOOOOOOOOOOOOOOOOOOO########OOOO....%%%%",
"%%%%....++++$$$$$$$$++++++++++++++++++++++++$$$$$$$$++++....%%%%",
"%%%%....++++$$$$$$$$++++++++++++++++++++++++$$$$$$$$++++....%%%%",
"%%%%....++++$$$$$$$$++++++++++++++++++++++++$$$$$$$$++++....%%%%",
"%%%%....++++$$$$$$$$++++++++++++++++++++++++$$$$$$$$++++....%%%%",
"%%%%....++++$$$$$$$$++++++++++++++++++++++++$$$$$$$$++++....%%%%",
"%%%%....++++$$$$$$$$++++++++++++++++++++++++$$$$$$$$++++....%%%%",
"%%%%....++++$$$$$$$$++++++++++++++++++++++++$$$$$$$$++++....%%%%",
"%%%%....++++$$$$$$$$++++++++++++++++++++++++$$$$$$$$++++....%%%%",
"%%%%....++++$$$$$$$$++++++++++++++++++++++++$$$$$$$$++++....%%%%",
"%%%%....++++$$$$$$$$++++++++++++++++++++++++$$$$$$$$++++....%%%%",
"%%%%....++++$$$$$$$$++++++++++++++++++++++++$$$$$$$$++++....%%%%",
"%%%%....++++$$$$$$$$++++++++++++++++++++++++$$$$$$$$++++....%%%%",
"%%%%....++++$$$$$$$$++++++++++++++++++++++++$$$$$$$$++++....%%%%",
"%%%%....++++$$$$$$$$++++++++++++++++++++++++$$$$$$$$++++....%%%%",
"%%%%....++++$$$$$$$$++++++++++++++++++++++++$$$$$$$$++++....%%%%",
"%%%%....++++$$$$$$$$++++++++++++++++++++++++$$$$$$$$++++....%%%%",
"%%%%....OOOO########OOOOOOOOOOOOOOOOOOOOOOOO########OOOO....%%%%",
"%%%%....OOOO########OOOOOOOOOOOOOOOOOOOOOOOO########OOOO....%%%%",
"%%%%....OOOO########OOOOOOOOOOOOOOOOOOOOOOOO########OOOO....%%%%",
"%%%%....OOOO########OOOOOOOOOOOOOOOOOOOOOOOO########OOOO....%%%%",
"%%%%....################$$$$$$$$$$$$$$$$################....%%%%",
"%%%%....################$$$$$$$$$$$$$$$$################....%%%%",
"%%%%....################$$$$$$$$$$$$$$$$################....%%%%",
"%%%%....################$$$$$$$$$$$$$$$$################....%%%%",
"%%%%....XXXX@@@@@@@@XXXX@@@@oooooooo@@@@XXXX@@@@@@@@XXXX....%%%%",
"%%%%....XXXX@@@@@@@@XXXX@@@@oooooooo@@@@XXXX@@@@@@@@XXXX....%%%%",
"%%%%....XXXX@@@@@@@@XXXX@@@@oooooooo@@@@XXXX@@@@@@@@XXXX....%%%%",
"%%%%....XXXX@@@@@@@@XXXX@@@@oooooooo@@@@XXXX@@@@@@@@XXXX....%%%%",
"    ....XXXX########OOOO####oooooooo####OOOO########XXXX....    ",
"    ....XXXX########OOOO####oooooooo####OOOO########XXXX....    ",
"    ....XXXX########OOOO####oooooooo####OOOO########XXXX....    ",
"    ....XXXX########OOOO####oooooooo####OOOO########XXXX....    ",
"    ....XXXX########OOOO################OOOO########XXXX....    ",
"    ....XXXX########OOOO################OOOO########XXXX....    ",
"    ....XXXX########OOOO################OOOO########XXXX....    ",
"    ....XXXX########OOOO################OOOO########XXXX....    ",
"    ....XXXX########OOOOOOOOOOOOOOOOOOOOOOOO########XXXX....    ",
"    ....XXXX########OOOOOOOOOOOOOOOOOOOOOOOO########XXXX....    ",
"    ....XXXX########OOOOOOOOOOOOOOOOOOOOOOOO########XXXX....    ",
"    ....XXXX########OOOOOOOOOOOOOOOOOOOOOOOO########XXXX....    ",
"        ....########OOOOOOOOOOOOOOOOOOOOOOOO########....        ",
"        ....########OOOOOOOOOOOOOOOOOOOOOOOO########....        ",
"        ....########OOOOOOOOOOOOOOOOOOOOOOOO########....        ",
"        ....########OOOOOOOOOOOOOOOOOOOOOOOO########....        ",
"%%%%                                                        %%%%",
"%%%%                                                        %%%%",
"%%%%                                                        %%%%",
"%%%%                                                        %%%%",
"%%%%%%%%%%%%                                        %%%%%%%%%%%%",
"%%%%%%%%%%%%                                        %%%%%%%%%%%%",
"%%%%%%%%%%%%                                        %%%%%%%%%%%%",
"%%%%%%%%%%%%                                        %%%%%%%%%%%%"
};
