/* XPM */
static char *result[] = {
/* columns rows colors chars-per-pixel */
"64 64 6 1 ",
"  c #0C0E19",
". c #21110D",
"X c #503625",
"o c #755338",
"O c #9D7658",
"+ c None",
/* pixels */
"++++++++++++++++++++++++++++++++++++++++++++++++++++++++++++++++",
"++++++++++++++++++++++++++++++++++++++++++++++++++++++++++++++++",
"++++++++++++++++++++++++++++++++++++++++++++++++++++++++++++++++",
"++++++++++++++++++++++++++++++++++++++++++++++++++++++++++++++++",
"++++++++++++++++++++............................++++++++++++++++",
"++++++++++++++++++++............................++++++++++++++++",
"++++++++++++++++++++............................++++++++++++++++",
"++++++++++++++++++++............................++++++++++++++++",
"++++++++++++++++....ooooOOOOOOOOOOOOOOOOOOOOoooo....++++++++++++",
"++++++++++++++++....ooooOOOOOOOOOOOOOOOOOOOOoooo....++++++++++++",
"++++++++++++++++....ooooOOOOOOOOOOOOOOOOOOOOoooo....++++++++++++",
"++++++++++++++++....ooooOOOOOOOOOOOOOOOOOOOOoooo....++++++++++++",
"++++++++++++....ooooOOOOOOOOooooooooooooOOOOOOOOoooo....++++++++",
"++++++++++++....ooooOOOOOOOOooooooooooooOOOOOOOOoooo....++++++++",
"++++++++++++....ooooOOOOOOOOooooooooooooOOOOOOOOoooo....++++++++",
"++++++++++++....ooooOOOOOOOOooooooooooooOOOOOOOOoooo....++++++++",
"++++++++++++....ooooOOOOOOOOooooooooooooOOOOOOOOoooo....++++++++",
"++++++++++++....ooooOOOOOOOOooooooooooooOOOOOOOOoooo....++++++++",
"++++++++++++....ooooOOOOOOOOooooooooooooOOOOOOOOoooo....++++++++",
"++++++++++++....ooooOOOOOOOOooooooooooooOOOOOOOOoooo....++++++++",
"++++++++++++....XXXXooooOOOOOOOOOOOOOOOOOOOOooooXXXX....++++++++",
"++++++++++++....XXXXooooOOOOOOOOOOOOOOOOOOOOooooXXXX....++++++++",
"++++++++++++....XXXXooooOOOOOOOOOOOOOOOOOOOOooooXXXX....++++++++",
"++++++++++++....XXXXooooOOOOOOOOOOOOOOOOOOOOooooXXXX....++++++++",
"++++++++++++++++....XXXXooooooooooooooooooooXXXX....++++++++++++",
"++++++++++++++++....XXXXooooooooooooooooooooXXXX....++++++++++++",
"++++++++++++++++....XXXXooooooooooooooooooooXXXX....++++++++++++",
"++++++++++++++++....XXXXooooooooooooooooooooXXXX....++++++++++++",
"++++++++++++++++....................................++++++++++++",
"++++++++++++++++....................................++++++++++++",
"++++++++++++++++....................................++++++++++++",
"++++++++++++++++....................................++++++++++++",
"++++++++++++++++....XXXXXXXXooooXXXXooooooooXXXX....++++++++++++",
"++++++++++++++++....XXXXXXXXooooXXXXooooooooXXXX....++++++++++++",
"++++++++++++++++....XXXXXXXXooooXXXXooooooooXXXX....++++++++++++",
"++++++++++++++++....XXXXXXXXooooXXXXooooooooXXXX....++++++++++++",
"++++++++++++++++....XXXXooooooooooooXXXXooooXXXX....++++++++++++",
"++++++++++++++++....XXXXooooooooooooXXXXooooXXXX....++++++++++++",
"++++++++++++++++....XXXXooooooooooooXXXXooooXXXX....++++++++++++",
"++++++++++++++++....XXXXooooooooooooXXXXooooXXXX....++++++++++++",
"++++++++++++++++....XXXXooooooooooooXXXXooooXXXX....++++++++++++",
"++++++++++++++++....XXXXooooooooooooXXXXooooXXXX....++++++++++++",
"++++++++++++++++....XXXXooooooooooooXXXXooooXXXX....++++++++++++",
"++++++++++++++++....XXXXooooooooooooXXXXooooXXXX....++++++++++++",
"++++++++++++    ....XXXXooooXXXXooooooooooooXXXX....    ++++++++",
"++++++++++++    ....XXXXooooXXXXooooooooooooXXXX....    ++++++++",
"++++++++++++    ....XXXXooooXXXXooooooooooooXXXX....    ++++++++",
"++++++++++++    ....XXXXooooXXXXooooooooooooXXXX....    ++++++++",
"++++++++++++    ....XXXXXXXX....ooooooooXXXXXXXX....    ++++++++",
"++++++++++++    ....XXXXXXXX....ooooooooXXXXXXXX....    ++++++++",
"++++++++++++    ....XXXXXXXX....ooooooooXXXXXXXX....    ++++++++",
"++++++++++++    ....XXXXXXXX....ooooooooXXXXXXXX....    ++++++++",
"++++++++            ....XXXX....XXXX....XXXX....            ++++",
"++++++++            ....XXXX....XXXX....XXXX....            ++++",
"++++++++            ....XXXX....XXXX....XXXX....            ++++",
"++++++++            ....XXXX....XXXX....XXXX....            ++++",
"++++++++++++++++                                    ++++++++++++",
"++++++++++++++++                                    ++++++++++++",
"++++++++++++++++                                    ++++++++++++",
"++++++++++++++++                                    ++++++++++++",
"++++++++++++++++++++    ++++++++++++++++++++    ++++++++++++++++",
"++++++++++++++++++++    ++++++++++++++++++++    ++++++++++++++++",
"++++++++++++++++++++    ++++++++++++++++++++    ++++++++++++++++",
"++++++++++++++++++++    ++++++++++++++++++++    ++++++++++++++++"
};
